svg/bypass_battery.svg

<svg xmlns="http://www.w3.org/2000/svg" width="24" height="24" viewBox="0 0 24 24"><path fill="none" d="M0 0h24v24H0z"/><path d="M17.5 9.1H19v-6h-6v1.5h3.5L12 9.1l-6-6-1 1 7 7 5.5-5.5zM18 14v6H4v-6h14m.7-2H3.3A1.324 1.324 0 0 0 2 13.3v7.3A1.347 1.347 0 0 0 3.3 22h15.3a1.324 1.324 0 0 0 1.3-1.3V19h2v-4h-2v-1.7a1.181 1.181 0 0 0-1.2-1.3z"/></svg>

<svg id="blui_bypass" xmlns="http://www.w3.org/2000/svg" width="24" height="24" viewBox="0 0 24 24">
  <rect fill="none" width="24" height="24"/>
  <path d="M17.5,9.1H19v-6H13V4.6h3.5L12,9.1l-6-6-1,1,7,7,5.5-5.5Z" transform="translate(0 0)"/>
  <path d="M18,14v3h0v3H4V14H18m.7-2H3.3A1.324,1.324,0,0,0,2,13.3v7.3A1.347,1.347,0,0,0,3.3,22H18.6a1.324,1.324,0,0,0,1.3-1.3V19h2V15h-2V13.3A1.181,1.181,0,0,0,18.7,12Z"/>
</svg>
